client/public/Images/logo.svg

<svg width="161" height="20" viewBox="0 0 161 20" fill="none" xmlns="http://www.w3.org/2000/svg">
<g clip-path="url(#clip0_88_292)">
<path d="M82.9183 1.40588C82.9299 1.32738 82.9902 1.32738 83.0018 1.40588C83.0582 1.78952 83.1776 2.20079 83.4238 2.44698C83.67 2.69316 84.0812 2.81252 84.4649 2.86898C84.5434 2.88054 84.5434 2.94091 84.4649 2.95247C84.0812 3.00893 83.67 3.12829 83.4238 3.37447C83.1776 3.62066 83.0582 4.03193 83.0018 4.41557C82.9902 4.49407 82.9299 4.49407 82.9183 4.41557C82.8618 4.03193 82.7425 3.62066 82.4963 3.37447C82.2501 3.12829 81.8388 3.00893 81.4552 2.95247C81.3767 2.94091 81.3767 2.88054 81.4552 2.86898C81.8388 2.81252 82.2501 2.69316 82.4963 2.44698C82.7425 2.20079 82.8618 1.78952 82.9183 1.40588Z" fill="#323232"/>
<path d="M85.3642 0.496903C85.3702 0.455887 85.4018 0.455887 85.4078 0.496903C85.4373 0.69736 85.4997 0.912255 85.6283 1.04089C85.7569 1.16953 85.9718 1.2319 86.1723 1.2614C86.2133 1.26744 86.2133 1.29898 86.1723 1.30502C85.9718 1.33452 85.7569 1.39689 85.6283 1.52553C85.4997 1.65416 85.4373 1.86906 85.4078 2.06952C85.4018 2.11053 85.3702 2.11053 85.3642 2.06952C85.3347 1.86906 85.2723 1.65416 85.1437 1.52553C85.015 1.39689 84.8001 1.33452 84.5997 1.30502C84.5587 1.29898 84.5587 1.26744 84.5997 1.2614C84.8001 1.2319 85.015 1.16953 85.1437 1.04089C85.2723 0.912256 85.3347 0.69736 85.3642 0.496903Z" fill="#323232"/>
<path d="M85.4311 3.77179C85.4346 3.74755 85.4533 3.74755 85.4568 3.77179C85.4743 3.89024 85.5111 4.01722 85.5871 4.09323C85.6631 4.16925 85.7901 4.2061 85.9086 4.22353C85.9328 4.2271 85.9328 4.24574 85.9086 4.24931C85.7901 4.26674 85.6631 4.3036 85.5871 4.37961C85.5111 4.45562 85.4743 4.58261 85.4568 4.70106C85.4533 4.72529 85.4346 4.72529 85.4311 4.70106C85.4136 4.58261 85.3768 4.45562 85.3008 4.37961C85.2247 4.3036 85.0978 4.26674 84.9793 4.24931C84.9551 4.24574 84.9551 4.2271 84.9793 4.22353C85.0978 4.2061 85.2247 4.16925 85.3008 4.09323C85.3768 4.01722 85.4136 3.89024 85.4311 3.77179Z" fill="#323232"/>
<path fill-rule="evenodd" clip-rule="evenodd" d="M79.8374 2.82566C79.831 2.82565 79.8245 2.82564 79.818 2.82564C75.6345 2.82564 72.9373 4.9724 72.9373 8.29344C72.9373 11.7429 75.6896 13.7612 80.4785 13.7612C81.2859 13.7612 82.0477 13.7216 82.7401 13.6586L81.9904 10.8606C81.4202 10.8975 80.8552 10.9173 80.3317 10.9173C78.6253 10.9173 77.4143 10.3668 76.9556 9.376H81.5926L81.0616 7.39438H76.8088C77.1391 6.27513 78.1666 5.66963 79.7996 5.66963C80.0916 5.66963 80.3651 5.69234 80.6172 5.73586L79.8374 2.82566ZM92.798 13.7493C94.2195 13.6397 95.3731 13.2351 96.2255 12.5686V13.5778H99.6016V6.78888C99.6016 4.22011 97.4732 2.82564 93.4916 2.82564C92.4014 2.82564 91.0617 2.92006 89.9304 3.04757L90.6608 5.77344C91.4104 5.70643 92.1814 5.66963 92.9045 5.66963C94.8677 5.66963 95.7852 6.12834 95.9503 7.24759V7.35768C95.0145 7.28429 93.3265 7.21089 92.2256 7.21089C91.8124 7.21089 91.4235 7.227 91.059 7.25923L91.6658 9.52417C92.0227 9.41316 92.4957 9.35765 93.088 9.35765C93.8402 9.35765 95.1797 9.35765 95.9686 9.376V9.98149C95.7301 10.8622 94.3723 11.4677 92.9962 11.4677C92.6896 11.4677 92.4158 11.4529 92.1747 11.4232L92.798 13.7493ZM3.63297 3.74306V0H0V13.5778H3.63297V6.73384C4.75222 6.22008 5.92651 5.94486 6.78888 5.94486C8.31179 5.94486 9.10077 6.6421 9.10077 7.98152V13.5778H12.7337V6.22008C12.7337 4.25681 10.7888 2.82564 8.14666 2.82564C6.84393 2.82564 5.11918 3.17426 3.63297 3.74306ZM27.471 7.39438C27.471 4.53204 25.0491 2.82564 21.2509 2.82564C17.0675 2.82564 14.3703 4.9724 14.3703 8.29344C14.3703 11.7429 17.1226 13.7612 21.9115 13.7612C23.8931 13.7612 25.9226 13.5227 27.0051 13.2842L26.359 10.4402C25.0196 10.7338 23.361 10.9173 21.7647 10.9173C20.0583 10.9173 18.8473 10.3668 18.3886 9.376H27.1958C27.3242 8.99068 27.471 8.25675 27.471 7.39438ZM23.8748 7.39438H18.2418C18.5721 6.27513 19.5996 5.66963 21.2326 5.66963C22.8289 5.66963 23.8748 6.34852 23.8748 7.39438ZM29.1265 13.5778V0H32.7595V13.5778H29.1265ZM38.6324 3.00913H34.9994V16.5135H38.6324V13.1007C39.6232 13.486 40.9259 13.7612 42.3204 13.7612C46.1369 13.7612 48.6873 11.6328 48.6873 8.29344C48.6873 4.95405 46.1369 2.82564 42.3204 2.82564C40.7608 2.82564 39.6783 3.19261 38.6324 3.65132V3.00913ZM38.6324 6.18339C39.3113 5.98155 40.2654 5.81642 41.348 5.81642C43.8066 5.81642 44.9442 6.73384 44.9442 8.29344C44.9442 9.8714 43.8066 10.7888 41.458 10.7888C40.4122 10.7888 39.3847 10.6053 38.6324 10.3668V6.18339ZM61.6856 13.7612C56.9885 13.7245 54.3647 11.7429 54.3647 8.29344C54.3647 4.84396 57.0802 2.82564 61.9609 2.82564C63.704 2.82564 65.3114 3.08252 66.3206 3.32105L65.6744 6.29348C64.4818 5.9999 63.0067 5.81642 61.8875 5.81642C59.3921 5.81642 58.1077 6.73384 58.1077 8.29344C58.1077 9.8714 59.3921 10.7705 61.8875 10.7705C63.0067 10.7705 64.4818 10.587 65.6744 10.2934L66.3206 13.2842C65.3114 13.5227 63.4104 13.7796 61.6856 13.7612ZM67.6516 0V13.5778H71.2846V0H67.6516ZM105.242 3.00913V3.7981C106.746 3.19261 108.526 2.82564 109.884 2.82564C112.526 2.82564 114.471 4.25681 114.471 6.22008V13.5778H110.838V7.98152C110.838 6.6421 110.049 5.94486 108.526 5.94486C107.664 5.94486 106.489 6.22008 105.37 6.73384V13.5778H101.737V3.00913H105.242ZM124.793 3.00913H121.206V16.5135H124.839V13.1007C125.83 13.486 127.132 13.7612 128.527 13.7612C132.343 13.7612 134.894 11.6328 134.894 8.29344C134.894 4.95405 132.343 2.82564 128.527 2.82564C126.967 2.82564 125.839 3.19261 124.793 3.65132V3.00913ZM124.839 6.18339C125.518 5.98155 126.472 5.81642 127.554 5.81642C130.013 5.81642 131.151 6.73384 131.151 8.29344C131.151 9.8714 130.013 10.7888 127.664 10.7888C126.619 10.7888 125.591 10.6053 124.839 10.3668V6.18339ZM136.575 3.00913H140.19V4.25681C141.346 3.35774 142.924 2.82564 144.594 2.82564C145.272 2.82564 146.311 2.91738 146.586 2.99078L145.94 6.25678C145.884 6.24463 145.831 6.23315 145.781 6.22234L145.779 6.22196C145.38 6.13508 145.18 6.09164 144.74 6.09164C142.924 6.10999 141.089 6.71549 140.208 7.92648V13.5778H136.575V3.00913ZM154.083 2.82564C149.514 2.82564 147.147 5.00909 147.147 8.29344C147.147 11.5778 149.514 13.7612 154.083 13.7612C158.633 13.7612 161 11.5778 161 8.29344C161 5.00909 158.633 2.82564 154.083 2.82564ZM154.083 10.7705C152.101 10.7705 150.89 9.8714 150.89 8.29344C150.89 6.73384 152.101 5.81642 154.083 5.81642C156.046 5.81642 157.257 6.73384 157.257 8.29344C157.257 9.8714 156.046 10.7705 154.083 10.7705Z" fill="#323232"/>
<path d="M83.4294 16.409L92.7909 13.9006L93.0417 14.8368C93.134 15.1815 92.9295 15.5357 92.5848 15.6281L84.4716 17.802C84.1269 17.8944 83.7726 17.6898 83.6803 17.3452L83.4294 16.409Z" fill="#323232"/>
<path d="M86.8844 16.8211C86.8382 16.6487 86.9405 16.4716 87.1128 16.4254L89.2971 15.8401C89.4695 15.794 89.6466 15.8962 89.6928 16.0686L89.7764 16.3806C89.8688 16.7253 89.6642 17.0796 89.3195 17.1719L87.7593 17.59C87.4146 17.6823 87.0603 17.4778 86.968 17.1331L86.8844 16.8211Z" fill="#323232"/>
<path d="M88.1326 16.4866L88.7566 16.3194L89.8436 20.376L89.2195 20.5432L88.1326 16.4866Z" fill="#323232"/>
</g>
<defs>
<clipPath id="clip0_88_292">
<rect width="161" height="20" fill="white"/>
</clipPath>
</defs>
</svg>

<svg xmlns="http://www.w3.org/2000/svg" width="161" height="20" fill="none"><g fill="#323232" clip-path="url(#a)"><path d="M82.918 1.406c.012-.079.072-.079.084 0 .056.384.176.795.422 1.041s.657.366 1.04.422c.08.012.08.072 0 .083-.383.057-.794.176-1.04.422-.246.247-.366.658-.422 1.042-.012.078-.072.078-.084 0-.056-.384-.175-.795-.422-1.042-.246-.246-.657-.365-1.04-.422-.08-.011-.08-.071 0-.083.383-.056.794-.176 1.04-.422.247-.246.366-.657.422-1.041M85.364.497c.006-.041.038-.041.044 0 .03.2.092.415.22.544.129.129.344.19.544.22.041.006.041.038 0 .044-.2.03-.415.092-.544.22-.128.13-.19.344-.22.545-.006.04-.038.04-.044 0-.03-.2-.092-.416-.22-.544-.129-.13-.344-.191-.544-.221-.041-.006-.041-.038 0-.044.2-.03.415-.091.544-.22.128-.129.19-.344.22-.544M85.431 3.772c.004-.024.022-.024.026 0 .017.118.054.245.13.321s.203.113.322.13c.024.004.024.023 0 .026-.119.018-.246.055-.322.13-.076.077-.113.204-.13.322-.004.024-.022.024-.026 0-.017-.118-.054-.245-.13-.321s-.203-.113-.322-.13c-.024-.004-.024-.023 0-.026.119-.018.246-.055.322-.13.076-.077.113-.204.13-.322"/><path fill-rule="evenodd" d="M79.837 2.826h-.019c-4.183 0-6.88 2.146-6.88 5.467 0 3.45 2.752 5.468 7.54 5.468.808 0 1.57-.04 2.262-.102l-.75-2.798c-.57.037-1.135.056-1.658.056-1.707 0-2.918-.55-3.376-1.541h4.637l-.531-1.982h-4.253c.33-1.119 1.358-1.724 2.99-1.724q.44 0 .818.066zm12.961 10.923c1.421-.11 2.575-.514 3.427-1.18v1.009h3.377v-6.79c0-2.568-2.129-3.962-6.11-3.962-1.09 0-2.43.094-3.562.222l.73 2.725a26 26 0 0 1 2.245-.103c1.963 0 2.88.458 3.045 1.578v.11a58 58 0 0 0-3.724-.147q-.62 0-1.167.048l.607 2.265q.535-.165 1.422-.166c.752 0 2.092 0 2.88.018v.605c-.238.881-1.596 1.487-2.972 1.487q-.46 0-.821-.045zM3.633 3.743V0H0v13.578h3.633V6.734c1.12-.514 2.294-.79 3.156-.79 1.523 0 2.312.698 2.312 2.038v5.596h3.633V6.22c0-1.963-1.945-3.394-4.587-3.394-1.303 0-3.028.348-4.514.917m23.838 3.651c0-2.862-2.422-4.568-6.22-4.568-4.184 0-6.88 2.146-6.88 5.467 0 3.45 2.752 5.468 7.54 5.468 1.982 0 4.012-.238 5.094-.477l-.646-2.844c-1.34.294-2.998.477-4.594.477-1.707 0-2.918-.55-3.376-1.541h8.807c.128-.385.275-1.12.275-1.982m-3.596 0h-5.633c.33-1.119 1.358-1.724 2.99-1.724 1.597 0 2.643.679 2.643 1.724m5.252 6.184V0h3.633v13.578zm9.505-10.569H35v13.505h3.633V13.1c.991.385 2.294.66 3.688.66 3.817 0 6.367-2.128 6.367-5.468s-2.55-5.467-6.367-5.467c-1.56 0-2.642.367-3.688.825zm0 3.174c.68-.201 1.633-.367 2.716-.367 2.459 0 3.596.918 3.596 2.477 0 1.578-1.137 2.496-3.486 2.496a9.8 9.8 0 0 1-2.826-.422zm23.054 7.578c-4.697-.036-7.321-2.018-7.321-5.468 0-3.449 2.715-5.467 7.596-5.467 1.743 0 3.35.257 4.36.495l-.647 2.972c-1.192-.293-2.667-.477-3.787-.477-2.495 0-3.78.918-3.78 2.477 0 1.578 1.285 2.478 3.78 2.478 1.12 0 2.595-.184 3.787-.478l.647 2.991c-1.01.239-2.91.496-4.635.477M67.652 0v13.578h3.633V0zm37.59 3.01v.788c1.504-.605 3.284-.972 4.642-.972 2.642 0 4.587 1.43 4.587 3.394v7.358h-3.633V7.982c0-1.34-.789-2.037-2.312-2.037-.862 0-2.037.275-3.156.789v6.844h-3.633V3.009zm19.551 0h-3.587v13.504h3.633V13.1c.991.385 2.293.66 3.688.66 3.816 0 6.367-2.128 6.367-5.468s-2.551-5.467-6.367-5.467c-1.56 0-2.688.367-3.734.825zm.046 3.173c.679-.201 1.633-.367 2.715-.367 2.459 0 3.597.918 3.597 2.477 0 1.578-1.138 2.496-3.487 2.496a9.8 9.8 0 0 1-2.825-.422zm11.736-3.174h3.615v1.248c1.156-.9 2.734-1.431 4.404-1.431.678 0 1.717.091 1.992.165l-.646 3.266-.159-.035h-.002c-.399-.087-.599-.13-1.039-.13-1.816.018-3.651.623-4.532 1.834v5.652h-3.633zm17.508-.183c-4.569 0-6.936 2.183-6.936 5.467 0 3.285 2.367 5.468 6.936 5.468 4.55 0 6.917-2.183 6.917-5.468 0-3.284-2.367-5.467-6.917-5.467m0 7.945c-1.982 0-3.193-.9-3.193-2.478 0-1.56 1.211-2.477 3.193-2.477 1.963 0 3.174.918 3.174 2.477 0 1.578-1.211 2.478-3.174 2.478" clip-rule="evenodd"/><path d="m83.43 16.409 9.36-2.508.252.936a.646.646 0 0 1-.457.791l-8.113 2.174a.646.646 0 0 1-.792-.457z"/><path d="M86.884 16.821a.323.323 0 0 1 .229-.396l2.184-.585a.323.323 0 0 1 .396.229l.083.312a.646.646 0 0 1-.456.79l-1.56.419a.646.646 0 0 1-.792-.457z"/><path d="m88.133 16.487.624-.168 1.087 4.057-.624.167z"/></g><defs><clipPath id="a"><path fill="#fff" d="M0 0h161v20H0z"/></clipPath></defs></svg>
